local/share/icons/dracula-icons-main/scalable/apps/genymotion-player.svg

<?xml version="1.0" encoding="UTF-8"?>
<svg xmlns="http://www.w3.org/2000/svg" xmlns:xlink="http://www.w3.org/1999/xlink" width="64" height="64" viewBox="0 0 64 64">
<path fill-rule="nonzero" fill="rgb(97.647059%, 97.647059%, 97.647059%)" fill-opacity="1" d="M 32 5 C 46.910156 5 59 17.089844 59 32 C 59 46.910156 46.910156 59 32 59 C 17.089844 59 5 46.910156 5 32 C 5 17.089844 17.089844 5 32 5 Z M 32 5 "/>
<path fill-rule="nonzero" fill="rgb(90.588235%, 15.294118%, 40.784314%)" fill-opacity="1" d="M 40.214844 22.609375 C 35.027344 22.609375 30.824219 26.808594 30.824219 32 C 30.824219 37.1875 35.023438 41.390625 40.214844 41.390625 C 45.402344 41.390625 49.609375 37.191406 49.609375 32 C 49.609375 26.8125 45.40625 22.609375 40.214844 22.609375 Z M 40.214844 24.953125 C 44.105469 24.953125 47.257812 28.105469 47.257812 31.996094 C 47.257812 35.882812 44.105469 39.039062 40.214844 39.039062 C 36.328125 39.039062 33.175781 35.886719 33.175781 31.996094 C 33.175781 28.105469 36.328125 24.953125 40.214844 24.953125 Z M 21.429688 26.125 C 17.542969 26.125 14.390625 29.28125 14.390625 33.167969 C 14.390625 37.058594 17.542969 40.210938 21.429688 40.210938 C 25.320312 40.210938 28.472656 37.058594 28.472656 33.167969 C 28.472656 29.28125 25.320312 26.125 21.429688 26.125 Z M 21.429688 28.472656 C 24.023438 28.472656 26.128906 30.574219 26.128906 33.167969 C 26.128906 35.761719 24.027344 37.867188 21.429688 37.867188 C 18.839844 37.867188 16.734375 35.765625 16.734375 33.167969 C 16.734375 30.578125 18.835938 28.472656 21.429688 28.472656 Z M 21.429688 28.472656 "/>
</svg>

<svg width="64" height="64" version="1.1" viewBox="0 0 64 64" xmlns="http://www.w3.org/2000/svg">
 <path d="m32 5c14.912 0 27 12.088 27 27s-12.088 27-27 27-27-12.088-27-27 12.088-27 27-27z" fill="#f9f9f9" stroke-width="1.1739"/>
 <path d="m40.216 22.609c-5.1869 0-9.3913 4.2003-9.3913 9.3913 0 5.1869 4.2003 9.3913 9.3913 9.3913 5.1869 0 9.3937-4.2003 9.3937-9.3913 0-5.1869-4.2025-9.3913-9.3937-9.3913zm0 2.3455c3.8892 0 7.0435 3.1521 7.0435 7.0411 0 3.8891-3.1543 7.0435-7.0435 7.0435s-7.0411-3.1543-7.0411-7.0435c0-3.8892 3.1521-7.0411 7.0411-7.0411zm-18.785 1.1716c-3.8892 0-7.0411 3.1543-7.0411 7.0435s3.1521 7.0411 7.0411 7.0411c3.8891 0 7.0435-3.1521 7.0435-7.0411 0-3.8892-3.1543-7.0435-7.0435-7.0435zm0 2.3478c2.5914 0 4.698 2.1001 4.698 4.6957 0 2.5914-2.1024 4.6957-4.698 4.6957-2.5914 0-4.6957-2.1001-4.6957-4.6957 0-2.5914 2.1001-4.6957 4.6957-4.6957z" fill="#e72768" stroke-width="1.1739"/>
</svg>
